app/img/svg/logo.svg

<svg width="216" height="51" viewBox="0 0 216 51" fill="none" xmlns="http://www.w3.org/2000/svg">
<path fill-rule="evenodd" clip-rule="evenodd" d="M38.3738 0L25.7319 12.642L19.1454 19.2284L25.2839 25.3669L37.9259 12.7249L50.5678 25.3669L44.5123 31.4224L51.0158 37.9259L63.6577 25.2839L38.3738 0Z" fill="#2C4295"/>
<path fill-rule="evenodd" clip-rule="evenodd" d="M38.3738 25.2839L25.7319 37.9258L13.0899 25.2839L19.1454 19.2283L12.642 12.7249L0 25.3668L25.2839 50.6507L37.9259 38.0088L44.5123 31.4223L38.3738 25.2839Z" fill="#2C4295"/>
<path fill-rule="evenodd" clip-rule="evenodd" d="M25.2839 25.3668L19.1454 19.2283L13.0899 25.2839L25.7319 37.9258L38.3738 25.2839L44.5123 31.4223L50.5678 25.3668L37.9259 12.7249L25.2839 25.3668Z" fill="#0083CA"/>
<path fill-rule="evenodd" clip-rule="evenodd" d="M74.8563 27.9964C75.5614 27.9964 76.1421 27.8969 76.5817 27.6812C77.4362 27.2913 77.826 26.4618 77.826 25.3419C77.826 24.4128 77.461 23.5916 76.6564 23.1022C76.1919 22.8368 75.6112 22.7372 74.8066 22.7372H74.1015V27.9964H74.8563ZM70.7668 20.033H74.9559C76.4158 20.033 77.6352 20.232 78.5809 20.7132C80.3312 21.5427 81.2852 23.1271 81.2852 25.3419C81.2852 27.2166 80.4805 29.2158 78.0915 30.1366C77.1873 30.4767 76.0757 30.6924 74.6572 30.6924H74.0932V36.076H70.7585V20.033H70.7668Z" fill="black"/>
<path fill-rule="evenodd" clip-rule="evenodd" d="M92.0192 29.4812L91.0735 26.7769C90.6837 25.6073 90.4929 24.9271 90.3436 24.3879H90.2938C90.1694 24.952 89.9288 25.6322 89.4892 26.8018L88.5186 29.4812H92.0192ZM88.9085 19.9583H91.6127L98.166 36.0759H94.5824L93.0229 32.1523H87.573L86.0881 36.0759H82.6539L88.9085 19.9583Z" fill="black"/>
<path fill-rule="evenodd" clip-rule="evenodd" d="M104.728 27.3162C105.458 27.3162 105.922 27.1918 106.337 26.9761C106.967 26.5862 107.407 25.9309 107.407 25.0267C107.407 24.1723 107.017 23.4423 106.312 23.0773C105.947 22.8533 105.491 22.7372 104.752 22.7372H103.483V27.3162H104.728ZM100.149 20.033H104.943C106.378 20.033 107.448 20.2486 108.303 20.6385C110.153 21.4432 110.858 22.9778 110.858 24.6783C110.858 26.7687 109.547 28.237 107.739 28.7927V28.8425C108.228 29.108 108.933 29.9873 109.788 31.4721L112.392 36.076H108.568L106.453 32.227C105.648 30.7172 105.084 30.1117 104.703 30.0121H103.483V36.076H100.149V20.033Z" fill="black"/>
<path d="M118.24 20.033H114.906V36.076H118.24V20.033Z" fill="black"/>
<path fill-rule="evenodd" clip-rule="evenodd" d="M125.084 22.8616H120.406V20.033H133.504L132.624 22.8616H128.419V36.076H125.084V22.8616Z" fill="black"/>
<path fill-rule="evenodd" clip-rule="evenodd" d="M135.378 20.033H144.653L143.773 22.8616H138.713V26.5613H143.798V29.3568H138.713V33.2556H144.628V36.076H135.378V20.033Z" fill="black"/>
<path fill-rule="evenodd" clip-rule="evenodd" d="M150.982 22.8616H146.312V20.033H159.401L158.53 22.8616H154.316V36.076H150.982V22.8616Z" fill="black"/>
<path fill-rule="evenodd" clip-rule="evenodd" d="M165.689 34.5662C167.854 34.5662 169.289 33.7118 169.289 31.5717C169.289 29.7716 167.954 28.6268 165.905 28.6268H163.3V34.5662H165.689ZM165.051 27.1171C167.191 27.1171 168.335 26.0719 168.335 24.2884C168.335 22.6874 167.406 21.5344 165.117 21.5344H163.292V27.1088H165.051V27.1171ZM161.5 20.033H165.225C168.634 20.033 170.144 21.9077 170.144 24.0976C170.144 25.7318 169.339 27.0176 168.029 27.5816V27.6314C169.829 28.0213 171.148 29.5061 171.148 31.5302C171.148 34.2344 169.248 36.0843 165.689 36.0843H161.5V20.033Z" fill="black"/>
<path fill-rule="evenodd" clip-rule="evenodd" d="M181.923 30.261L180.264 25.6322C179.75 24.222 179.509 23.4672 179.31 22.8616H179.26C179.061 23.4755 178.796 24.222 178.29 25.6322L176.606 30.261H181.923ZM178.663 19.9832H179.907L186.046 36.0759H184.096L182.512 31.7707H176.058L174.474 36.0759H172.574L178.663 19.9832Z" fill="black"/>
<path fill-rule="evenodd" clip-rule="evenodd" d="M200.032 36.076L192.342 25.8977C191.371 24.6285 190.641 23.6082 190.077 22.8036H190.028C190.077 23.6082 190.102 24.2884 190.102 25.5493V36.0677H188.302V20.033H190.028L197.427 29.8214C198.447 31.1818 199.202 32.2519 199.766 33.0565H199.816C199.766 32.2021 199.766 31.497 199.766 30.2361V20.033H201.541V36.076H200.032Z" fill="black"/>
<path fill-rule="evenodd" clip-rule="evenodd" d="M205.49 20.033H207.29V27.3825H207.34L213.428 20.033H215.569L208.899 27.9715L216 36.076H213.744L207.34 28.7513H207.29V36.076H205.49V20.033Z" fill="black"/>
</svg>

<svg width="216" height="51" viewBox="0 0 216 51" fill="none" xmlns="http://www.w3.org/2000/svg"><path fill-rule="evenodd" clip-rule="evenodd" d="M38.374 0L25.732 12.642l-6.587 6.586 6.139 6.139 12.642-12.642 12.642 12.642-6.056 6.055 6.504 6.504 12.642-12.642L38.374 0z" fill="#2C4295"/><path fill-rule="evenodd" clip-rule="evenodd" d="M38.374 25.284L25.732 37.926 13.09 25.284l6.055-6.056-6.503-6.503L0 25.367 25.284 50.65l12.642-12.642 6.586-6.587-6.138-6.138z" fill="#2C4295"/><path fill-rule="evenodd" clip-rule="evenodd" d="M25.284 25.367l-6.139-6.139-6.055 6.056 12.642 12.642 12.642-12.642 6.138 6.138 6.056-6.055-12.642-12.642-12.642 12.642z" fill="#0083CA"/><path fill-rule="evenodd" clip-rule="evenodd" d="M74.856 27.996c.705 0 1.286-.1 1.726-.315.854-.39 1.244-1.22 1.244-2.34 0-.928-.365-1.75-1.17-2.239-.464-.265-1.045-.365-1.85-.365h-.704v5.26h.754zm-4.09-7.963h4.19c1.46 0 2.68.199 3.625.68 1.75.83 2.704 2.414 2.704 4.629 0 1.875-.804 3.874-3.194 4.795-.904.34-2.015.555-3.434.555h-.564v5.384h-3.335V20.033h.009zm21.254 9.448l-.947-2.704c-.39-1.17-.58-1.85-.73-2.39h-.05c-.124.565-.364 1.245-.804 2.415l-.97 2.68h3.5zm-3.111-9.523h2.704l6.553 16.118h-3.584l-1.56-3.924h-5.449l-1.485 3.924h-3.434l6.255-16.118zm15.819 7.358c.73 0 1.194-.124 1.609-.34.63-.39 1.07-1.045 1.07-1.95 0-.854-.39-1.584-1.095-1.949-.365-.224-.821-.34-1.56-.34h-1.269v4.58h1.245zm-4.579-7.283h4.794c1.435 0 2.505.216 3.36.605 1.85.805 2.555 2.34 2.555 4.04 0 2.09-1.311 3.559-3.119 4.115v.05c.489.265 1.194 1.144 2.049 2.63l2.604 4.603h-3.824l-2.115-3.849c-.805-1.51-1.369-2.115-1.75-2.215h-1.22v6.064h-3.334V20.033z" fill="#000"/><path d="M118.24 20.033h-3.334v16.043h3.334V20.033z" fill="#000"/><path fill-rule="evenodd" clip-rule="evenodd" d="M125.084 22.862h-4.678v-2.829h13.098l-.88 2.829h-4.205v13.214h-3.335V22.862zm10.294-2.829h9.275l-.88 2.829h-5.06v3.7h5.085v2.795h-5.085v3.899h5.915v2.82h-9.25V20.033zm15.604 2.829h-4.67v-2.829h13.089l-.871 2.829h-4.214v13.214h-3.334V22.862zm14.707 11.704c2.165 0 3.6-.854 3.6-2.994 0-1.8-1.335-2.945-3.384-2.945H163.3v5.94h2.389zm-.638-7.449c2.14 0 3.284-1.045 3.284-2.829 0-1.6-.929-2.754-3.218-2.754h-1.825v5.575h1.759v.008zm-3.551-7.084h3.725c3.409 0 4.919 1.875 4.919 4.065 0 1.634-.805 2.92-2.115 3.484v.05c1.8.39 3.119 1.874 3.119 3.898 0 2.704-1.9 4.554-5.459 4.554H161.5V20.033zm20.423 10.228l-1.659-4.629c-.514-1.41-.755-2.165-.954-2.77h-.05c-.199.614-.464 1.36-.97 2.77l-1.684 4.629h5.317zm-3.26-10.278h1.244l6.139 16.093h-1.95l-1.584-4.305h-6.454l-1.584 4.305h-1.9l6.089-16.093zm21.369 16.093l-7.69-10.178a89.496 89.496 0 0 1-2.265-3.094h-.049c.049.804.074 1.484.074 2.745v10.519h-1.8V20.033h1.726l7.399 9.788a118.86 118.86 0 0 1 2.339 3.235h.05c-.05-.854-.05-1.559-.05-2.82V20.033h1.775v16.043h-1.509zm5.458-16.043h1.8v7.35h.05l6.088-7.35h2.141l-6.67 7.938L216 36.076h-2.256l-6.404-7.325h-.05v7.325h-1.8V20.033z" fill="#000"/></svg>
